X: 11146
T: Dulaman Na Binne Bui
R: strathspey
M: 4/4
K: Amixolydian
e>dB>A G>AB>d|e>dB>A B<dd>g|e>dB>A G>AB>d|g>ed>B A>a^g>a|
e>AB>A G>AB>d|e>dB>A B<dd>g|e>AB>A G>AB>d|g>ed>B A2AE||
[E2A2]a2 a>ge>d|e>dB>A B2d2|e2a2 a>ge<d|g<ed>B A2A2|
A2a2 a>ge<d|e<dB>A B2d2|(3efe e>d (3Bcd e>f|g>ed<B g<ea2||

